app/assets/images/phone.svg

<svg width="203" height="243" viewBox="0 0 203 243" fill="none" xmlns="http://www.w3.org/2000/svg">
<path d="M49.6374 36.8638C49.6375 32.4456 53.2194 28.8637 57.6376 28.8636L144.797 28.8613C149.215 28.8612 152.797 32.4428 152.797 36.8611L152.792 205.371C152.792 209.789 149.21 213.371 144.792 213.371L57.6328 213.374C53.2145 213.374 49.6329 209.792 49.633 205.374L49.6374 36.8638Z" stroke="white" stroke-width="4"/>
<path d="M49.6345 47.3153C49.6346 42.897 53.2164 39.3152 57.6347 39.315L144.794 39.3127C149.212 39.3126 152.794 42.8943 152.794 47.3125L152.79 186.641C152.79 191.059 149.208 194.641 144.79 194.641L57.6306 194.643C53.2123 194.643 49.6307 191.062 49.6308 186.643L49.6345 47.3153Z" stroke="white" stroke-width="4"/>
<path d="M82.695 63.1324C82.6952 58.7141 86.277 55.1323 90.6953 55.1322L139.505 55.1309C143.924 55.1308 147.505 58.7124 147.505 63.1307L147.505 83.209C147.504 87.6272 143.923 91.209 139.504 91.2092L90.6943 91.2105C86.276 91.2106 82.6944 87.6289 82.6945 83.2107L82.695 63.1324Z" stroke="white" stroke-width="4"/>
<path d="M55.3928 110.526C55.3929 106.107 58.9747 102.526 63.393 102.525L112.203 102.524C116.621 102.524 120.203 106.106 120.203 110.524L120.202 130.602C120.202 135.021 116.62 138.602 112.202 138.602L63.3921 138.604C58.9738 138.604 55.3922 135.022 55.3923 130.604L55.3928 110.526Z" stroke="white" stroke-width="4"/>
<path d="M100.678 156.007C100.679 151.588 104.26 148.007 108.679 148.006L139.181 148.006C143.599 148.006 147.181 151.587 147.181 156.005L147.18 160.329C147.18 164.747 143.598 168.329 139.18 168.329L108.678 168.33C104.26 168.33 100.678 164.748 100.678 160.33L100.678 156.007Z" stroke="white" stroke-width="4"/>
<path fill-rule="evenodd" clip-rule="evenodd" d="M114.249 162.16C116.366 161.593 117.622 159.413 117.054 157.291C116.485 155.169 114.308 153.909 112.19 154.477C110.072 155.044 108.816 157.224 109.385 159.346C109.953 161.468 112.131 162.728 114.249 162.16Z" fill="white" fill-opacity="0.2"/>
<path fill-rule="evenodd" clip-rule="evenodd" d="M124.649 162.119C126.766 161.551 128.022 159.371 127.454 157.25C126.885 155.128 124.707 153.868 122.59 154.435C120.472 155.003 119.216 157.183 119.785 159.304C120.353 161.426 122.531 162.686 124.649 162.119Z" fill="white" fill-opacity="0.6"/>
<path fill-rule="evenodd" clip-rule="evenodd" d="M135.049 162.077C137.167 161.51 138.422 159.33 137.854 157.208C137.285 155.086 135.108 153.826 132.99 154.394C130.872 154.961 129.617 157.141 130.185 159.263C130.754 161.385 132.931 162.645 135.049 162.077Z" fill="white"/>
</svg>

<svg width="203" height="243" fill="none" xmlns="http://www.w3.org/2000/svg"><path d="M49.637 36.864a8 8 0 0 1 8-8l87.16-.003a8 8 0 0 1 8 8l-.005 168.51a8 8 0 0 1-8 8l-87.16.003a8 8 0 0 1-7.999-8l.004-168.51z" stroke="#fff" stroke-width="4"/><path d="M49.635 47.315a8 8 0 0 1 8-8l87.159-.002a8 8 0 0 1 8 8l-.004 139.328a8 8 0 0 1-8 8l-87.16.002a8 8 0 0 1-8-8l.005-139.328z" stroke="#fff" stroke-width="4"/><path d="M82.695 63.132a8 8 0 0 1 8-8l48.81-.001a8 8 0 0 1 8 8v20.078a8.001 8.001 0 0 1-8.001 8l-48.81.001a8 8 0 0 1-8-8l.001-20.078zM55.393 110.526c0-4.419 3.582-8 8-8.001l48.81-.001a8 8 0 0 1 8 8l-.001 20.078a8 8 0 0 1-8 8l-48.81.002a8 8 0 0 1-8-8v-20.078zM100.678 156.007a8.002 8.002 0 0 1 8.001-8.001h30.502a8 8 0 0 1 8 7.999l-.001 4.324a8 8 0 0 1-8 8l-30.502.001a8 8 0 0 1-8-8v-4.323z" stroke="#fff" stroke-width="4"/><path fill-rule="evenodd" clip-rule="evenodd" d="M114.249 162.16a3.974 3.974 0 0 0 2.805-4.869 3.973 3.973 0 0 0-4.864-2.814 3.972 3.972 0 0 0-2.805 4.869 3.972 3.972 0 0 0 4.864 2.814z" fill="#fff" fill-opacity=".2"/><path fill-rule="evenodd" clip-rule="evenodd" d="M124.649 162.119a3.975 3.975 0 0 0 2.805-4.869 3.975 3.975 0 0 0-4.864-2.815 3.973 3.973 0 0 0-2.805 4.869 3.974 3.974 0 0 0 4.864 2.815z" fill="#fff" fill-opacity=".6"/><path fill-rule="evenodd" clip-rule="evenodd" d="M135.049 162.077a3.973 3.973 0 0 0 2.805-4.869 3.973 3.973 0 0 0-4.864-2.814 3.973 3.973 0 0 0-2.805 4.869 3.973 3.973 0 0 0 4.864 2.814z" fill="#fff"/></svg>
